T: Irish Washerwoman, The
M: 6/8
L: 1/8
K: Gmaj
|:BGG DGG|BGB dcB|cAA EAA|cAc edc|
BGG DGG|BGB dcB|cBc Adc|BGG G3:|
|:gdg gdg|gdg bag|fdf fdf|fdf agf|
egg dgg| cgg B2B|cBc Adc|1BGG G2d:|2BGG G2A||
|:BGG D3|BGB dcB|cAA E3|cAc edc|
BGG D3|BGB dcB|cBc Adc|BGG G3:|
|:g3 gdg|gdg bag|f3 fdf|fdf agf|
e2g d2g| cBg B2B|cBc Adc|1BGG G2d:|2BGG G2A||
